static/assets/images/networks/rootstock-mono.svg

<svg width="232" height="256" viewBox="0 0 232 256" fill="none" xmlns="http://www.w3.org/2000/svg">
<path d="M116 70.5234C135.413 70.5234 151.152 54.7362 151.152 35.2617C151.152 15.7872 135.413 0 116 0C96.5863 0 80.8485 15.7872 80.8485 35.2617C80.8485 54.7362 96.5863 70.5234 116 70.5234Z" fill="black"/>
<path d="M214.346 143.939C197.451 134.271 175.82 139.995 166.093 156.785C162.765 162.509 161.229 168.869 161.357 175.102C161.741 190.621 147.662 198.634 134.35 190.621C133.839 190.366 133.327 189.985 132.687 189.73C119.248 182.225 119.248 166.326 132.687 158.948C143.695 152.97 151.246 141.395 151.246 128.039C151.246 127.784 151.246 127.53 151.246 127.276C150.862 111.757 164.941 103.744 178.252 111.757C188.875 118.245 202.699 118.754 214.218 112.139C231.113 102.472 236.873 80.9753 227.145 64.1851C217.418 47.395 195.787 41.6711 178.892 51.3381C167.373 57.9525 160.973 70.1635 161.229 82.5018C161.613 98.0195 147.534 106.034 134.35 98.0195C128.975 94.7127 122.703 92.8049 115.92 92.8049C109.136 92.8049 102.864 94.7127 97.4885 97.8925C84.1778 105.779 70.2266 97.7655 70.6106 82.3745C70.8666 69.9091 64.467 57.8253 52.9477 51.2109C36.0527 41.5439 14.422 47.395 4.69459 64.1851C-5.03281 80.9753 0.854827 102.472 17.7498 112.139C29.2691 118.754 43.0923 118.117 53.7157 111.757C67.0268 103.744 80.9779 111.757 80.594 127.276C80.594 127.53 80.594 127.784 80.594 128.039C80.594 141.395 88.0176 152.97 99.1531 158.948C112.592 166.453 112.592 182.352 99.1531 189.73C98.6405 189.985 98.1288 190.366 97.6171 190.621C84.3058 198.507 70.3546 190.493 70.7386 175.102C70.8666 168.869 69.3307 162.509 66.0028 156.658C56.2755 139.868 34.6448 134.144 17.7498 143.812C0.854827 153.733 -4.90482 175.229 4.82258 192.019C14.55 208.81 36.1807 214.534 53.0756 204.866C53.3317 204.739 53.4596 204.612 53.7157 204.484C67.0268 196.471 80.9779 204.484 80.594 220.003C80.594 220.257 80.594 220.512 80.594 220.893C80.594 240.227 96.4652 256 115.92 256C135.375 256 151.246 240.227 151.246 220.893C151.246 220.639 151.246 220.385 151.246 220.13C150.862 204.612 164.941 196.599 178.252 204.612C178.508 204.739 178.764 204.866 179.02 205.121C195.915 214.788 217.546 209.064 227.273 192.273C237 175.102 231.241 153.606 214.346 143.939Z" fill="black"/>
</svg>

<svg xmlns="http://www.w3.org/2000/svg" fill="none" viewBox="0 0 232 256"><path fill="#000" d="M116 70.523c19.413 0 35.152-15.787 35.152-35.261S135.413 0 116 0C96.586 0 80.849 15.787 80.849 35.262c0 19.474 15.737 35.261 35.151 35.261"/><path fill="#000" d="M214.346 143.939c-16.895-9.668-38.526-3.944-48.253 12.846a35 35 0 0 0-4.736 18.317c.384 15.519-13.695 23.532-27.007 15.519-.511-.255-1.023-.636-1.663-.891-13.439-7.505-13.439-23.404 0-30.782 11.008-5.978 18.559-17.553 18.559-30.909v-.763c-.384-15.519 13.695-23.532 27.006-15.519 10.623 6.488 24.447 6.997 35.966.382 16.895-9.667 22.655-31.164 12.927-47.954-9.727-16.79-31.358-22.514-48.253-12.847-11.519 6.615-17.919 18.825-17.663 31.164.384 15.517-13.695 23.532-26.879 15.517a34.96 34.96 0 0 0-18.43-5.214c-6.784 0-13.056 1.908-18.431 5.087-13.311 7.887-27.262-.126-26.878-15.517A35.03 35.03 0 0 0 52.948 51.21c-16.895-9.667-38.526-3.816-48.253 12.974-9.728 16.79-3.84 38.287 13.055 47.954 11.52 6.615 25.342 5.978 35.966-.382 13.31-8.013 27.262 0 26.878 15.519v.763c0 13.356 7.424 24.931 18.56 30.909 13.438 7.505 13.438 23.404 0 30.782-.513.255-1.025.636-1.537.891-13.311 7.886-27.262-.128-26.878-15.519.128-6.233-1.408-12.593-4.736-18.444-9.727-16.79-31.358-22.514-48.253-12.846-16.895 9.921-22.655 31.417-12.927 48.207 9.727 16.791 31.358 22.515 48.253 12.847.256-.127.384-.254.64-.382 13.31-8.013 27.262 0 26.878 15.519v.89c0 19.334 15.871 35.107 35.326 35.107s35.326-15.773 35.326-35.107v-.763c-.384-15.518 13.695-23.531 27.006-15.518.256.127.512.254.768.509 16.895 9.667 38.526 3.943 48.253-12.848 9.727-17.171 3.968-38.667-12.927-48.334"/></svg>
